!! 00000] TT[WS
!!!OTL: Pie Baicai
!!!ARE: Asia, China,ÿShanxi Dingxiang
!! Ethnic Group: Han
!! WI, 157 (1)
!!!SCT: J0190
!!!YEM: Copyright 1995, estate of Helmut Schaffrath.
**kern
*ICvox
*Ivox
*M2/4
*k[f#c#g#d#]
*E:
{8ff#
8cc#
8ff#
8cc#
=1
8b
16cc#
16ee
4b
=2
8ee
8g#
8b
16cc#
16b
=3
8e
8f#
8cc#
8b}
=4
{8.b
16ee
8cc#
8b
=5
8.ee
16g#
4f#
=6
8b
16e
16g#
16f#
16g#
16f#
16c#
=7
2B}
==
!!!AGN: Xiaodiao. Qingge
!!!ONB: ESAC (Essen Associative Code) Database: CHINA
!!!AMT: simple duple
!!!AIN: vox
!!!EED: Helmut Schaffrath
!!!EEV: 1.0
*-
